X:1
T:Sude sude vadai
C:Traditional
O:Tamil Nadu, India
N:Apparently this is a street song sung by a vadai hawker (vadai are a type of fritters). 
N:Whith this song, he wants to sell his "vadai" at the school gate, in the morning 
N:before school begins.
S:Alfa VZW, Landenkrant India (booklet introducing India for primary schools)
Z:Bert Van Vreckem <bert.vanvreckem@gmail.com>
M:2/4
L:1/8
K:Eb
"Eb"B/B/z "Bb"B,/B,/z|"Eb"E/E/z z2|"Eb"B/B/z "Bb"B,/B,/z|"Eb"E/E/z z2|
w:Su-de, su-de, va-dai, su-de, su-de, va-dai
w:Lekk'-re o-lie-bol-len, lekk'-re o-lie-bol-len
"Eb"B>A GF|EF GA|"Eb"B/B/z "Bb"B,/B,/z|"Eb"E/E/z z2|
w:Un-ba-di-kum u-ne-ren-de, su-de su-de va-dai
w:Kom en koop hier o-lie-bol-len, lekk'-re o-lie-bol-len
"Eb"BB BB|B2 "Ab"A2|"Eb"EF GA|"Bb"F4|
w:Chin-na, chin-na, pa-pa si-ka-ra-ma va!
w:Klei-ne, klei-ne kind'-ren, kom de school be-gint
"Eb"B>A GF|EF GA|"Eb"B/B/z "Bb"B,/B,/z|"Eb"E/E/z z2|]
w:Un-ba-ki-dum u-ne-ren-de, su-de su-de va-dai
w:E\'en of twee voor een paar roe-pies, lekk'-re o-lie-bol-len
